Remember/Remember/Assets.xcassets/Images/logo.imageset/logo.svg

<svg fill="none" height="52" viewBox="0 0 36 52" width="36" xmlns="http://www.w3.org/2000/svg"><path clip-rule="evenodd" d="m0 13v36.0228c0 1.6439 1.87304 2.5858 3.19265 1.6055l13.14725-9.7665c.6925-.5144 1.6367-.5269 2.3425-.0309l14.1677 9.9557c1.3252.9312 3.1499-.0167 3.1499-1.6364v-36.1502zm0-4h36v-7c0-1.104571-.8954-2-2-2h-32c-1.104569 0-2 .895431-2 2z" fill="#000" fill-rule="evenodd"/></svg>

<svg width="36" height="52" viewBox="0 0 36 52" fill="none" xmlns="http://www.w3.org/2000/svg">
<path fill-rule="evenodd" clip-rule="evenodd" d="M0 13V49.0228C0 50.6667 1.87304 51.6086 3.19265 50.6283L16.3399 40.8618C17.0324 40.3474 17.9766 40.3349 18.6824 40.8309L32.8501 50.7866C34.1753 51.7178 36 50.7699 36 49.1502V13H0ZM0 9H36V2C36 0.895429 35.1046 0 34 0H2C0.895431 0 0 0.895431 0 2V9Z" fill="black"/>
</svg>
